X: 1
T: The Highlandman's Umbrella   (G)
C: Beryl S. Johnston
S: from Susan Worland, Andy Imbrie, Michael Bentley CD
Z: T. Traub 8-30-2016
R: Reel
K: G
M: 4/4
L: 1/8
|: d>c |\
"G"B2BA "(C)"G2GE | "(D7)"DEGA "G"B2d2 | "C"e2gg "G"B2G2 | "Am"B2A2 "D"A2dc |\
"G"B2BA G2AB | "C"cdef g2e2 | "G"d2>g2 b2g2 | "D"a4 "G"g2 :|
|: Bc |\
"G"d2dd "(Em)"B2G2 | "C"e2ee "D"c2A2 | "G"d2dd "Em"B2d2 | "Am"B2A2 "D"A2d2 |\
"C"edcB "Am"cBAG | "D"AGFE D2EF | "G"GABc d2B2 | "D"A4 "G"G2 :|
